X: 1262
M: 3/8
L: 1/16
K: G
d2 |\
(db)(fg)(^de) | d4(Bd) | .c.a.B.g.A.f | (gfgd).B.G |\
d(b^abg)d | ec'ac'ag | (fd').d.f.a.b | g4 ]
(Bd) |\
(Bc)(ac)(dc) | (Bd)(bd)(gd) | d(cBcA)c | (Bd)GBdg |\
(Bc)(ac)(dc) | (Bd)(bd)(gd) | c^cd^def | g4 H:|
K: C
|: G2 |\
(cG)(ec)(ge) | fadfBd | GABcdB | ec'gc'eg |\
c(defg)e | (da)(df)(Bd) | (GBdg)fg | (3ege c2 :|
|: G2 |\

